packages/kaspersky-hexa-ui-icons/src/iconsSVGs/16/SafeKids.svg

<svg width="16" height="16" viewBox="0 0 16 16" fill="none" xmlns="http://www.w3.org/2000/svg">
<path d="M10.8528 7.60373C10.8528 8.09282 10.4564 8.48931 9.96727 8.48931C9.47819 8.48931 9.0817 8.09282 9.0817 7.60373C9.0817 7.11465 9.47819 6.71816 9.96727 6.71816C10.4564 6.71816 10.8528 7.11465 10.8528 7.60373Z" fill="black"/>
<path d="M7.99981 12.3202C6.8741 12.3202 5.96154 11.4077 5.96152 10.282H10.0381C10.0381 11.4077 9.12551 12.3202 7.99981 12.3202Z" fill="black"/>
<path fill-rule="evenodd" clip-rule="evenodd" d="M8.0071 1.04419C5.34552 1.04419 3.12454 2.92675 2.6017 5.43322C1.6955 5.76893 1.0498 6.64035 1.0498 7.66343C1.0498 8.64825 1.64807 9.49242 2.50097 9.85366C2.71531 12.7073 5.0986 14.956 8.0071 14.956C10.9473 14.956 13.3507 12.6581 13.5195 9.76021C14.3612 9.39413 14.9498 8.55572 14.9498 7.57891C14.9498 6.55429 14.3022 5.68179 13.3938 5.3472C12.8386 2.88384 10.6382 1.04419 8.0071 1.04419ZM6.0921 5.69407C5.25354 5.96636 4.42136 5.94175 3.84644 5.84533C4.18807 3.85724 5.92136 2.34419 8.0071 2.34419C8.32851 2.34419 8.64155 2.38012 8.94242 2.44818C8.3256 4.48499 7.16784 5.34477 6.0921 5.69407ZM6.57457 6.90352C7.5146 6.58188 8.43108 5.97954 9.15888 4.96833C9.17384 5.00038 9.18936 5.0322 9.20547 5.06379C9.47577 5.59402 9.90931 6.05527 10.5322 6.33937C11.1495 6.62094 11.9057 6.70743 12.7946 6.57628C12.8309 6.57092 12.866 6.56266 12.8999 6.55177C13.3347 6.69031 13.6498 7.09827 13.6498 7.57891C13.6498 8.10812 13.2677 8.54943 12.7642 8.63967L12.2289 8.73562V9.4342C12.2289 11.7658 10.3387 13.656 8.0071 13.656C5.67545 13.656 3.78527 11.7658 3.78527 9.4342V8.81791L3.24444 8.72577C2.73653 8.63924 2.3498 8.19585 2.3498 7.66343C2.3498 7.34974 2.48404 7.06701 2.69816 6.86993C2.70888 6.87507 2.7198 6.87996 2.73091 6.88457C3.20716 7.08212 4.16031 7.28786 5.25198 7.18471C5.18485 7.30946 5.14677 7.45215 5.14677 7.60373C5.14677 8.09282 5.54325 8.48931 6.03234 8.48931C6.52143 8.48931 6.91791 8.09282 6.91791 7.60373C6.91791 7.31892 6.78346 7.06552 6.57457 6.90352ZM12.0471 5.33611C11.7409 4.32877 11.068 3.48092 10.1838 2.9479C10.0921 3.46006 10.1374 4.02963 10.3637 4.47336C10.5133 4.76683 10.7404 5.00549 11.0717 5.15659C11.3114 5.26594 11.6295 5.34001 12.0471 5.33611Z" fill="black"/>
</svg>

<svg xmlns="http://www.w3.org/2000/svg" width="16" height="16" fill="none" viewBox="0 0 16 16"><path fill="#000" d="M10.853 7.604a.886.886 0 1 1-1.771 0 .886.886 0 0 1 1.771 0M8 12.32c-1.126 0-2.038-.912-2.038-2.038h4.077c0 1.126-.913 2.038-2.038 2.038"/><path fill="#000" fill-rule="evenodd" d="M8.0071 1.0442c-2.6616 0-4.8826 1.8826-5.4054 4.389-.9062.3357-1.5519 1.2071-1.5519 2.2302 0 .9849.5983 1.829 1.4512 2.1903.2143 2.8536 2.5976 5.1023 5.5061 5.1023 2.9402 0 5.3436-2.2979 5.5124-5.1958.8417-.366 1.4303-1.2045 1.4303-2.1813 0-1.0246-.6476-1.8971-1.556-2.2317-.5552-2.4634-2.7556-4.303-5.3867-4.303M6.0921 5.694c-.8386.2723-1.6707.2477-2.2457.1512.3417-1.988 2.075-3.5011 4.1607-3.5011.3214 0 .6345.036.9353.104C8.3256 4.485 7.1678 5.3448 6.0921 5.694m.4825 1.2094c.94-.3216 1.8565-.924 2.5843-1.9352q.0225.048.0466.0955c.2703.5302.7038.9915 1.3267 1.2756.6173.2815 1.3735.368 2.2624.2369a.66.66 0 0 0 .1053-.0245c.4348.1385.7499.5465.7499 1.0271 0 .5292-.3821.9705-.8856 1.0608l-.5353.096v.6985c0 2.3316-1.8902 4.2218-4.2218 4.2218s-4.2218-1.8902-4.2218-4.2218v-.6163l-.5409-.0921c-.5079-.0866-.8946-.53-.8946-1.0624 0-.3137.1342-.5964.3484-.7935a1 1 0 0 0 .0327.0147c.4763.1975 1.4294.4033 2.521.3001a.8856.8856 0 1 0 1.3226-.2812M12.047 5.336c-.3062-1.0073-.9791-1.8552-1.8633-2.3882-.0917.5122-.0464 1.0817.1799 1.5255.1496.2934.3767.532.708.6832.2397.1093.5578.1834.9754.1795" clip-rule="evenodd"/></svg>
